X: 7
T: MacArthur Road
R: reel
M: 4/4
L: 1/8
K: Amix
|: A3B AFAd | effd edBd | e2ef  edBd | gefd edBd |
| A2AB AFAd | f3d edBd | e2ef edBd |1 Addc d3B :|2 Addc defg|]
|: ad (3ddd adbd | ad (3ddd edBd | e2ef edBd | (3gfe (3fed edBd |
|1 ad (3ddd adbd | ad (3ddd edBd | e^def edBd | Addc defg :|
|2 A2AB AFAd | f3d edBd | e2ef edBd | Addc d4 :|]


Tune 2221	Setting 15587

